src/img/icons/users.svg

<svg fill="none" height="21" viewBox="0 0 26 21" width="26" xmlns="http://www.w3.org/2000/svg"><path d="m12.9609 13c2.2657 0 4.0625-1.7969 4.0625-4.0625 0-2.22656-1.8359-4.0625-4.0625-4.0625-2.2265 0-4.0234 1.83594-4.0234 4.0625-.03906 2.2656 1.7969 4.0625 4.0234 4.0625zm1.9532 1.25h-3.8672c-3.08596 0-5.5469 2.3438-5.5469 5.2344 0 .5859.46875 1.0156 1.09375 1.0156h12.77345c.625 0 1.1328-.4297 1.1328-1.0156 0-2.8906-2.5-5.2344-5.5859-5.2344zm5.5859-7.5c1.7188 0 3.125-1.36719 3.125-3.125 0-1.71875-1.4062-3.125-3.125-3.125-1.7578 0-3.125 1.40625-3.125 3.125 0 1.75781 1.3672 3.125 3.125 3.125zm-12.85156 2.1875c0-.19531.03906-.39062.07812-.58594-.42968-.23437-.89844-.35156-1.40625-.35156h-2.38281c-1.91406 0-3.4375 1.64062-3.4375 3.6719 0 .3906.273438.7031.66406.7031h7.8125c-.82031-.8984-1.32812-2.1094-1.32812-3.4375zm-2.14844-2.1875c1.71875 0 3.125-1.36719 3.125-3.125 0-1.71875-1.40625-3.125-3.125-3.125-1.75781 0-3.125 1.40625-3.125 3.125 0 1.75781 1.36719 3.125 3.125 3.125zm16.5234 1.25h-2.3828c-.5078 0-.9765.15625-1.4062.35156 0 .19532.039.39063.039.58594 0 1.3281-.4687 2.5391-1.289 3.4375h7.8125c.3906 0 .7031-.3125.7031-.7031 0-2.03128-1.5625-3.6719-3.4766-3.6719z" fill="#fff"/></svg>

<svg width="26" height="21" viewBox="0 0 26 21" fill="none" xmlns="http://www.w3.org/2000/svg">
<path d="M12.9609 13C15.2266 13 17.0234 11.2031 17.0234 8.9375C17.0234 6.71094 15.1875 4.875 12.9609 4.875C10.7344 4.875 8.9375 6.71094 8.9375 8.9375C8.89844 11.2031 10.7344 13 12.9609 13ZM14.9141 14.25H11.0469C7.96094 14.25 5.5 16.5938 5.5 19.4844C5.5 20.0703 5.96875 20.5 6.59375 20.5H19.3672C19.9922 20.5 20.5 20.0703 20.5 19.4844C20.5 16.5938 18 14.25 14.9141 14.25ZM20.5 6.75C22.2188 6.75 23.625 5.38281 23.625 3.625C23.625 1.90625 22.2188 0.5 20.5 0.5C18.7422 0.5 17.375 1.90625 17.375 3.625C17.375 5.38281 18.7422 6.75 20.5 6.75ZM7.64844 8.9375C7.64844 8.74219 7.6875 8.54688 7.72656 8.35156C7.29688 8.11719 6.82812 8 6.32031 8H3.9375C2.02344 8 0.5 9.64062 0.5 11.6719C0.5 12.0625 0.773438 12.375 1.16406 12.375H8.97656C8.15625 11.4766 7.64844 10.2656 7.64844 8.9375ZM5.5 6.75C7.21875 6.75 8.625 5.38281 8.625 3.625C8.625 1.90625 7.21875 0.5 5.5 0.5C3.74219 0.5 2.375 1.90625 2.375 3.625C2.375 5.38281 3.74219 6.75 5.5 6.75ZM22.0234 8H19.6406C19.1328 8 18.6641 8.15625 18.2344 8.35156C18.2344 8.54688 18.2734 8.74219 18.2734 8.9375C18.2734 10.2656 17.8047 11.4766 16.9844 12.375H24.7969C25.1875 12.375 25.5 12.0625 25.5 11.6719C25.5 9.64062 23.9375 8 22.0234 8Z" fill="white"/>
</svg>
